X:1
T:Title
%%score { 1 | 2 }
L:1/8
Q:1/4=100
M:4/4
K:F
V:1 treble nm="Grand Piano"
V:2 bass 
V:1
 F2 F>G A2 A>G | F2 A2 [DG]D z2 | C2 E>F [EG]4 | F2 F>G A4 | F2 F>G A2 A>G | F2 A2 [DG]D z2 | %6
w: Elisha~A.~Hoffman * * * * *||||||
 C2 E>F [EG]4 | [EG]2 F>E F4 | c2 c2 A2 [CEA]>[B,EG] | [A,F]2 [CEG]2 Ac z2 | d2 d2 B2 B>A | %11
w: |||||
 G2 G2 G[Ec] z2 | F2 F>G A2 A>G | F2 A2 [DG]D z2 | C2 E>F [EG]4 | [EG]2 F>E F4 |] %16
w: |||||
V:2
 [F,A,]2 [F,A,]>[F,B,F] [F,CF]2 [F,CF]>[F,B,F] | [F,A,]2 [F,CF]2 [B,,B,][B,,F,B,] z2 | %2
 [C,E,B,]2 [C,G,C]>[C,A,C] [C,B,]4 | [F,A,]2 [F,A,]>[F,B,E] [F,CF]4 | %4
 [F,A,]2 [F,A,]>[F,B,F] [F,CF]2 [F,CF]>[F,B,F] | [F,A,]2 [F,CF]2 [B,,B,][B,,F,B,] z2 | %6
 [C,E,B,]2 [C,G,C]>[C,A,C] [C,B,]4 | [C,B,]2 [C,A,C]>[C,G,C] [F,A,C]4 | %8
 [F,A,F]2 [F,A,F]2 [F,CF]2 C,>C, | D,2 C,2 [F,CF][F,A,F] z2 | [B,F]2 [B,F]2 [B,DF]2 [B,DF]>[B,DF] | %11
 [=B,DF]2 [B,DF]2 [CE][K:bass][C,_B,] z2 | [F,A,]2 [F,A,]>[F,B,F] [F,CF]2 [F,CF]>[F,B,F] | %13
 [F,A,]2 [F,CF]2 [B,,B,][B,,F,B,] z2 | [C,E,B,]2 [C,G,C]>[C,A,C] [C,B,]4 | %15
 [C,B,]2 [C,A,C]>[C,G,C] [F,A,C]4 |] %16

